X:1
T:we're marching to zion
T:we're marching to zion - alto part
T:robert lowry
C:robert lowry
L:1/8
M:6/8
K:G
V:1 treble nm="Piano" snm="Pno."
V:1
 D | G3 D3 | DED D2 F | G2 D BAG | F3 F2 F | G2 G G2 G | E2 E E2 D | F2 F G2 F | E2 C D2 | D | %10
 D3 F3 | G2 B A2 E | D2 D D2 D | D3 D2 |] G | B3 G2 G | G3 D3 | G>DD G>GG | F3 F2 A | G2 G GGG | %20
 d3 edA | G>GG F<FF | G3 G2 |] D | G3 D3 | DED D2 F | G2 D BAG | F3 F2 F | G2 G G2 G | E2 E E2 D | %30
 F2 F G2 F | E2 C D2 | D | E3 F3 | G2 B A2 E | D2 D D2 D | D3 D2 |] G | B3 G2 G | G3 D3 | %40
 G>DD G>GG | F3 F2 A | G2 G GGG | d3 edA | G>GG F<FF | G3 G2 |] D | G3 D3 | DED D2 F | G2 D BAG | %50
 F3 F2 F | G2 G G2 G | E2 E E2 D | F2 F G2 F | E2 C D2 | D | E3 F3 | G2 B A2 E | D2 D D2 D | %59
 D3 D2 |] G | B3 G2 G | G3 D3 | G>DD G>GG | F3 F2 A | G2 G GGG | d3 edA | G>GG F<FF | G3 G2 |] D | %70
 G3 D3 | DED D2 F | G2 D BAG | F3 F2 F | G2 G G2 G | E2 E E2 D | F2 F G2 F | E2 C D2 | D | E3 F3 | %80
 G2 B A2 E | D2 D D2 D | D3 D2 |] G | B3 G2 G | G3 D3 | G>DD G>GG | F3 F2 A | G2 G GGG | d3 edA | %90
 G>GG F<FF | G3 G2 |] E6 | D6 |] %94

